X:6
T:Tatter Jack Walsh
R:jig
I:speed 350
E:10
M:6/8
K:DMix
de|~f3 ded|cAB c2d|cAF GFG|Ad^c d2e|\
fef ded|cAB c2d|cAF GFG|Ad^c d2:|*
A|dfa afd|dfa afd|ceg gfg|ceg gag|\
fef ded|cAB c2d|cAF GFG|Ad^c d2:|**
<end>
<start>
